!!!COM: Anon.
!!!OTL: Kayo-Kami
!!!OTC: Japanese Popular Music: A Collection of The Popular Music of Japan Rendered in to the Staff notation.
!!!CNT: Nippon, Japanese
!!!TXO: Nippon, Japan
!!!OCY: Nippon, Japan
!!!ODT: <1892///
!!!PSR: S. Miki & Co.
!!!PSP: Osaka, Nippon
!!!PDT: 1892///
!!!PPE: Y Nagai & K. Kobatake
!!!PED: Revised Second Edition
!!!PPG: page 53
!! Moderato
**kern	**silbe
*ICstr	*Lnippon
*ICvox	*
*Ikoto	*
*Ivox	*
*clefG2	*
*k[]	*
*M4/4	*
=1-	=1-
4.e 4.ee	.
16r	.
16a	.
4..b	.
16dd	.
=2	=2
(4ee	.
8dd	.
8ee)	.
4.e	.
8ee	.
=3	=3
(4ff	.
4ee)	.
(4.dd	.
8b)	.
=4	=4
8dd	.
8dd	.
8dd	.
8r	.
8ee	.
8dd	.
8r	.
8ee	.
=5	=5
4ff	.
8aa	.
8bb	.
(8ee	.
4ee)	.
8cc	.
=6	=6
(4b	.
4a)	.
4b	.
8cc	.
8b	.
=7	=7
4.a	.
8f	.
2a	.
=8	=8
4a	.
8b	.
8a	.
8B	.
8r	.
(4cc	.
=9	=9
4b)	.
4a	.
4f	.
8a	.
8cc	.
=10	=10
(8.b	.
16a)	.
4f	.
4e	.
4ee	.
=11	=11
8.cc	.
16ee	.
4b	.
4a	.
8.b	.
16dd	.
=12	=12
4ee	.
4ee	.
2ee	.
=13	=13
4a	.
4b	.
8dd	.
8ee	.
8ff	.
8aa	.
=14	=14
(8.ee	.
16cc)	.
4b	.
2a	.
=15	=15
8ff	.
8aa	.
8bb	.
8ccc	.
8aa	.
8ff	.
8aa	.
8ccc	.
=16	=16
8bb	.
8aa	.
4ff	.
8ff	.
8ee	.
8ee	.
8cc	.
=17	=17
8.b	.
16a	.
8f	.
8a	.
4e	.
8B	.
8a	.
=18	=18
4b	.
4b	.
4b	.
4ee	.
=19	=19
4cc	.
4b	.
2cc	.
=20	=20
4r	.
4cc	.
(8cc	.
8b)	.
8a	.
8f	.
=21	=21
(4a	.
4b)	.
4.cc	.
8ee	.
=22	=22
(4cc	.
4b)	.
(4a	.
4b)	.
=23	=23
4cc	.
4cc	.
2cc	.
=24	=24
(4cc	.
4.b)	.
8cc	.
4b	.
=25	=25
4.a	.
8f	.
2a	.
=26	=26
4.a	.
8f	.
8a	.
8b	.
(4cc	.
=27	=27
4b)	.
4a	.
4f	.
4e	.
=28	=28
8.ee	.
16c	.
4b	.
4a	.
4r	.
=29	=29
8a	.
8b	.
4dd	.
8ee	.
8b	.
8a	.
8f	.
=30	=30
4e	.
4e	.
4ee	.
4r	.
=31	=31
2ee	.
(4ff	.
4ee)	.
=32	=32
4r	.
4aa	.
2ff	.
=33	=33
(4.ee	.
8cc)	.
(4b	.
4a)	.
=34	=34
4f	.
4e	.
4a	.
(4b	.
=35	=35
2cc)	.
(4ee	.
4cc)	.
=36	=36
2b	.
2a	.
=37	=37
2b	.
4b	.
4r	.
==	==
*-	*-
!!!ENC: David Huron
!!!RDT: 2000/1/30
!!!EEV: Release 1.0
!!!ELF: 15/28
!!!YER: 2000/2/1
!!!YEM: Copyright David Huron, 2000
!!!YEN: United States of America
